dist/svgs/unicons/line/truck-loading.svg

<svg xmlns="http://www.w3.org/2000/svg" data-name="Layer 1" viewBox="0 0 24 24"><path d="M22 16h-2.18a3 3 0 00.18-1v-5a3 3 0 00-3-3h-6a3 3 0 00-3 3v5a3 3 0 00.18 1H7a1 1 0 01-1-1V5a3 3 0 00-3-3H2a1 1 0 000 2h1a1 1 0 011 1v10a3 3 0 002.22 2.88 3 3 0 105.6.12h3.36a3 3 0 105.64 0H22a1 1 0 000-2zM9 20a1 1 0 111-1 1 1 0 01-1 1zm2-4a1 1 0 01-1-1v-5a1 1 0 011-1h6a1 1 0 011 1v5a1 1 0 01-1 1zm7 4a1 1 0 111-1 1 1 0 01-1 1z"/></svg>

<svg xmlns="http://www.w3.org/2000/svg" data-name="Layer 1" viewBox="0 0 24 24"><path d="M22,16H19.82A3,3,0,0,0,20,15V10a3,3,0,0,0-3-3H11a3,3,0,0,0-3,3v5a3,3,0,0,0,.18,1H7a1,1,0,0,1-1-1V5A3,3,0,0,0,3,2H2A1,1,0,0,0,2,4H3A1,1,0,0,1,4,5V15a3,3,0,0,0,2.22,2.88,3,3,0,1,0,5.6.12h3.36a3,3,0,1,0,5.64,0H22a1,1,0,0,0,0-2ZM9,20a1,1,0,1,1,1-1A1,1,0,0,1,9,20Zm2-4a1,1,0,0,1-1-1V10a1,1,0,0,1,1-1h6a1,1,0,0,1,1,1v5a1,1,0,0,1-1,1Zm7,4a1,1,0,1,1,1-1A1,1,0,0,1,18,20Z"/></svg>
